public/images/hero/glyph-1.svg

<svg height="120" viewBox="0 0 140 120" width="140" xmlns="http://www.w3.org/2000/svg"><path d="m1020 2332h80v80h-80zm-40 80h40v40h-40zm-20-20h20v20h-20z" fill="#fff" transform="translate(-960 -2332)"/></svg>

<svg width="140px" height="120px" viewBox="0 0 140 120" version="1.1" xmlns="http://www.w3.org/2000/svg" xmlns:xlink="http://www.w3.org/1999/xlink">
  <g transform="translate(-960, -2332)" fill="#fff">
      <path d="M1020,2332 L1100,2332 L1100,2412 L1020,2412 L1020,2332 Z M980,2412 L1020,2412 L1020,2452 L980,2452 L980,2412 Z M960,2392 L980,2392 L980,2412 L960,2412 L960,2392 Z"></path>
  </g>
</svg>
